build/system/FilterOutline.svg

<svg xmlns="http://www.w3.org/2000/svg" fill="none" viewBox="0 0 24 24" focusable="false"><path d="M0 0H24V24H0z"/><path fill="#74767B" fill-rule="evenodd" d="M3.79014 4.69006C3.43115 4.69006 3.14014 4.98108 3.14014 5.34006C3.14014 5.69905 3.43115 5.99006 3.79014 5.99006L4.40572 5.99006L4.5601 7.26993C4.8701 10.3799 6.9201 13.2399 9.6501 14.1699L9.6501 20.0952C9.6501 20.4798 10.0662 20.7204 10.3995 20.5285L13.8295 18.5542C13.9846 18.4649 14.0801 18.2997 14.0801 18.1208L14.0801 14.2499C16.9201 13.3799 19.0701 10.4699 19.3901 7.26993L19.5495 5.99006L20.2101 5.99006C20.5691 5.99006 20.8601 5.69905 20.8601 5.34006C20.8601 4.98108 20.5691 4.69006 20.2101 4.69006L3.79014 4.69006ZM18.1001 7.13993L18.2401 5.99993L5.7201 5.99993L5.8601 7.10993C6.1201 9.79993 7.8501 12.1799 10.0701 12.9399L10.9501 13.2399L10.9501 18.7099L12.7801 17.6499L12.7801 13.2799L13.7001 12.9999C15.9801 12.3099 17.8301 9.83993 18.1001 7.13993Z"/></svg>

<svg xmlns="http://www.w3.org/2000/svg" fill="none" viewBox="0 0 24 24" focusable="false"><path fill="#74767B" fill-rule="evenodd" d="M3.79 4.69c-.36 0-.65.29-.65.65 0 .35.29.65.65.65h.61l.16 1.27c.31 3.11 2.35 5.97 5.08 6.9v5.93c0 .38.42.63.75.43l3.43-1.97c.16-.09.26-.26.26-.43v-3.88c2.83-.87 4.99-3.78 5.31-6.98l.15-1.27h.66c.36 0 .66-.3.66-.65 0-.36-.3-.65-.66-.65zM18.1 7.13l.14-1.14H5.72l.13 1.11c.27 2.69 2 5.07 4.22 5.83l.88.3v5.47l1.83-1.06v-4.37l.92-.28c2.28-.69 4.13-3.16 4.4-5.86"/></svg>
